contributed-vectors/mymonero_for_android.svg

<?xml version="1.0" encoding="UTF-8" standalone="no"?>
<svg
   width="192"
   height="192"
   version="1.1"
   viewBox="0 0 192 192"
   id="svg14"
   sodipodi:docname="mymonero_for_android.svg"
   inkscape:version="1.1 (c4e8f9ed74, 2021-05-24)"
   xmlns:inkscape="http://www.inkscape.org/namespaces/inkscape"
   xmlns:sodipodi="http://sodipodi.sourceforge.net/DTD/sodipodi-0.dtd"
   xmlns="http://www.w3.org/2000/svg"
   xmlns:svg="http://www.w3.org/2000/svg"
   xmlns:rdf="http://www.w3.org/1999/02/22-rdf-syntax-ns#"
   xmlns:cc="http://creativecommons.org/ns#"
   xmlns:dc="http://purl.org/dc/elements/1.1/">
  <metadata
     id="metadata20">
    <rdf:RDF>
      <cc:Work
         rdf:about="">
        <dc:format>image/svg+xml</dc:format>
        <dc:type
           rdf:resource="http://purl.org/dc/dcmitype/StillImage" />
      </cc:Work>
    </rdf:RDF>
  </metadata>
  <defs
     id="defs18" />
  <sodipodi:namedview
     pagecolor="#ffffff"
     bordercolor="#666666"
     borderopacity="1"
     objecttolerance="10"
     gridtolerance="10"
     guidetolerance="10"
     inkscape:pageopacity="0"
     inkscape:pageshadow="2"
     inkscape:window-width="1904"
     inkscape:window-height="1005"
     id="namedview16"
     showgrid="false"
     inkscape:zoom="2.3828026"
     inkscape:cx="68.406843"
     inkscape:cy="157.37771"
     inkscape:window-x="8"
     inkscape:window-y="39"
     inkscape:window-maximized="1"
     inkscape:current-layer="svg14"
     inkscape:document-rotation="0"
     inkscape:pagecheckerboard="0" />
  <path
     id="path1316"
     style="opacity:1;fill:#4a4a4a;stroke:none;stroke-width:0.999958;stroke-miterlimit:4;stroke-dasharray:none;fill-opacity:1"
     d="M 29.935547 20 C 24.431755 20 20 24.431755 20 29.935547 L 20 49.568359 L 172 49.568359 L 172 29.935547 C 172 24.431755 167.56825 20 162.06445 20 L 29.935547 20 z " />
  <rect
     x="38.355083"
     y="36.574558"
     width="115.28985"
     height="115.28985"
     rx="7.5352836"
     opacity="1"
     id="rect2-6"
     style="fill:#9abeff;fill-opacity:1;stroke:none;stroke-width:0.758454;stroke-miterlimit:4;stroke-dasharray:none;stroke-opacity:1" />
  <path
     id="rect2"
     style="opacity:1;fill:#83868c;stroke:none;stroke-width:0.999958;stroke-miterlimit:4;stroke-dasharray:none;fill-opacity:1"
     d="M 172 49.568359 L 20 49.568359 L 20 162.06445 C 20 167.56825 24.431755 172 29.935547 172 L 162.06445 172 C 167.56825 172 172 167.56825 172 162.06445 L 172 49.568359 z " />
  <g
     aria-label="M"
     id="text4275"
     style="font-weight:bold;font-size:67.1394px;line-height:1.25;font-family:Now;-inkscape-font-specification:'Now Bold';stroke-width:1.67849" />
  <g
     aria-label="M"
     id="text4275-6"
     style="font-weight:bold;font-size:67.1394px;line-height:1.25;font-family:Now;-inkscape-font-specification:'Now Bold';stroke-width:1.67849"
     transform="translate(52.872275)" />
  <path
     id="path7155"
     style="font-weight:500;-inkscape-font-specification:'Now Medium';fill:#ececec;fill-opacity:1;stroke:#ececec;stroke-width:2;stroke-linecap:round;stroke-linejoin:round;stroke-miterlimit:4;stroke-dasharray:none;stroke-opacity:1;paint-order:markers fill stroke"
     d="m 56.98633,90.639442 v 40.289478 h 6.580845 v -27.73325 l 12.355843,27.73325 h 4.363684 L 92.710299,103.2764 v 27.65252 h 0.06631 6.514528 v -27.73325 l 12.354403,27.73325 h 4.36513 l 12.48991,-27.79956 v 27.79956 h 6.51309 V 90.639442 h -6.98305 L 113.86126,122.19867 99.761101,90.639442 h -0.469962 -6.58084 -0.403643 L 78.138737,122.19867 64.037132,90.639442 Z" />
</svg>

<svg xmlns="http://www.w3.org/2000/svg" width="192" height="192"><path d="M29.936 20A9.914 9.914 0 0 0 20 29.936v19.632h152V29.936A9.914 9.914 0 0 0 162.064 20H29.936z" style="opacity:1;fill:#4a4a4a;stroke:none;stroke-width:.999958;stroke-miterlimit:4;stroke-dasharray:none;fill-opacity:1"/><rect width="115.29" height="115.29" x="38.355" y="36.575" rx="7.535" style="fill:#9abeff;fill-opacity:1;stroke:none;stroke-width:.758454;stroke-miterlimit:4;stroke-dasharray:none;stroke-opacity:1"/><path d="M172 49.568H20v112.496A9.914 9.914 0 0 0 29.936 172h132.128a9.914 9.914 0 0 0 9.936-9.936V49.568z" style="opacity:1;fill:#83868c;stroke:none;stroke-width:.999958;stroke-miterlimit:4;stroke-dasharray:none;fill-opacity:1"/><path d="M56.986 90.64v40.289h6.581v-27.733l12.356 27.733h4.364l12.423-27.653v27.653h6.581v-27.733l12.355 27.733h4.365l12.49-27.8v27.8h6.513v-40.29h-6.983l-14.17 31.56-14.1-31.56h-7.454L78.139 122.2l-14.102-31.56Z" style="font-weight:500;-inkscape-font-specification:&quot;Now Medium&quot;;fill:#ececec;fill-opacity:1;stroke:#ececec;stroke-width:2;stroke-linecap:round;stroke-linejoin:round;stroke-miterlimit:4;stroke-dasharray:none;stroke-opacity:1;paint-order:markers fill stroke"/></svg>
